X:1
T:Intenerite voi
T:Intenerite voi
T:Raffaello Rontani
T:Source : Le varie Musiche a uno e due voci---Roma---G.B.Robletti---1622. Edfitor : André Vierendeels (03/05/16).
T:Notes : Original clefs : C1, F4 Figures above the BC are notated in original print
T:©
T:©
T:©
C:Raffaello Rontani
Z:©
%%score 1 2
L:1/8
Q:1/4=93
M:4/4
K:C
V:1 treble nm="Soprano" snm="S"
V:2 bass nm="BC" snm="BC"
V:1
 A6 AA | _B6- BE | E6 e2- | e2 dd c2 B2 | z EEF G3 ^F | ^F3 A B3 ^G | ^G4 G2 z B | e3 F FE E2 | %8
w: In- te- ne-|ri- * te|voi la-|* gri- me mi- e,|in- te- ne- ri- te|voi quel du- ro|co- re, ch'in|van per- cos- se'a- mo-|
 D6 A2 | dccB B2 B2 | G2 GA F3 E | F4 z A d2- | d3 B ^G2 G2 | z2 e4 c2- | cA d3 c TB2 | %15
w: re, ver-|sa- te'a mil- le'à mil- le,|fa- te di pian- to'un|mar do- len-|* ti stil- le,|O quel|_ mio va- go sco-|
 A2 dA c2 cd | d4 c2 G2- | GE A4 TG>F | E2 c3 A d2- | d2 Tc>B A2 d2 | _B2 A2 A3 G- | A4 z4 | %22
w: glio d'al- te- rez- z'e d'or-|go- glio, ri-|* per- cos- so da|voi, ri- per- cos-|* so da voi men|du- ro fi- a,|_|
 z2 dd d2 ^cc | d4 z2 GG | G2 ^FF G2 E2- | E2 DD D4 | C8 | z4 z2 ee | e2 ^dd e4 | z2 AA A2 ^GG | %30
w: O se n'es- cha con|voi, O se|n'es- cha con voi l'a-|* ni- ma mi-|a,|O se|n'es- cha con voi,|O se n'es- cha con|
 A4 ^F4- | F2 EE E4 | D8 |] %33
w: voi l'a-|* ni- ma mi-|a.|
V:2
 D,8 | G,,8 | A,,4 A,3 G, | ^F,6 ^G,2 | ^C,8 |"^5 6" D,8 | E,6 D,2 | ^C,2 D,2 G,,2 A,,2 |"^#" D,8 | %9
 D,4 G,,4 | G,,8 | D,8 | E,8 | E,4 A,4 | ^F,4 G,4 | D,4 E,2 F,2 | G,4 C,4 | A,,4 B,,4 | C,4 D,4 | %19
 E,4 ^F,4 |"^7 6" G,2 A,2 _B,4 |"^#" A,6 G,2 | ^F,2 G,2 E,4 |"^6" B,,6 C,2 |"^6" A,,4 E,,4 | %25
 E,,2 F,,2 G,,4 | C,2 C4 B,A, |"^#" ^G,6 A,2 |"^7 6" ^F,4 ^C,4 |"^#""^7 6" ^C,2 D,2 B,,4 | %30
 ^F,,4 F,,4 | ^F,,2 G,,2 A,,4 | D,8 |] %33

